X:1
T:The Scartaglen
L:1/8
M:12/8
I:linebreak $
K:G
V:1 treble 
V:1
|: B2 B cBA G2 E D3 | EFG A2 B c3 B2 A | B2 B cBA G2 E D3 | EFG AFD G3 G3 ::$ D2 B BAB d2 B B3 | %5
 D2 A AGA c2 A A3 :| D2 B BAB d2 B B3 | EFG AFD G3 GED :| %8
